X:177
T:Jenny of the Green. JJo8.177
B:J.Johnson Choice Collection Vol 8 1758
Z:vmp.Simon Wilson 2013 www.village-music-project.org.uk
M:2/4
L:1/16
Q:1/4=100
K:Eb
|:((3EEE) GEBG e2|((3EEE) GE DFD[BB,]|((3EEE) GEBG e>g|((3fed) ((3cB=A) B2B,2:|
|:((3BBB) dBFB _a2|((3BBB) eBgB b2|((3EEE) G>B ((3EEE) A>c|BAGF E2e2:|

